assets/images/iocono-viajeros.svg

<svg width="60" height="60" viewBox="0 0 60 60" fill="none" xmlns="http://www.w3.org/2000/svg">
<rect width="60" height="60" rx="5.33333" fill="#F1F3F9"/>
<path fill-rule="evenodd" clip-rule="evenodd" d="M16.8728 26.3371C16.8728 29.258 19.251 31.6361 22.172 31.6361C25.0843 31.6361 27.471 29.258 27.471 26.3371C27.471 23.4161 25.0929 21.038 22.172 21.038C19.251 21.038 16.8728 23.4161 16.8728 26.3371ZM18.2514 26.3371C18.2514 24.1743 20.0092 22.4167 22.172 22.4167C24.3261 22.4167 26.0924 24.1743 26.0924 26.3371C26.0924 28.4998 24.3346 30.2578 22.172 30.2578C20.0092 30.2578 18.2514 28.4998 18.2514 26.3371Z" fill="#1D1F24"/>
<path fill-rule="evenodd" clip-rule="evenodd" d="M23.6886 37.1514L23.9298 37.3668L24.533 37.246L26.0668 34.1095H27.7124V38.9605H29.091V33.4204C29.091 33.0413 28.7808 32.7308 28.4017 32.7308H16.106C15.7269 32.7308 15.4167 33.0413 15.4167 33.4204V38.9605H16.7953V34.1095H18.2208L19.2166 36.9187L19.3458 37.2372L19.9921 37.358L21.948 35.4108L23.6886 37.1514ZM23.9642 35.8501L24.8173 34.1095H22.2312L23.9642 35.8501ZM19.403 34.1095H21.6624L19.9921 35.7727L19.403 34.1095Z" fill="#1D1F24"/>
<path fill-rule="evenodd" clip-rule="evenodd" d="M39.1809 37.1514L39.4222 37.3668L40.0253 37.246L41.5591 34.1095H43.2047V38.9605H44.5834V33.4204C44.5834 33.0413 44.2732 32.7308 43.894 32.7308H31.5984C31.2192 32.7308 30.909 33.0413 30.909 33.4204V38.9605H32.2877V34.1095H33.712L34.7004 36.9187L34.8382 37.2372L35.4844 37.3668L37.4404 35.4108L39.1809 37.1514ZM34.8954 34.1095L35.4844 35.7727L37.1548 34.1095H34.8954ZM37.7236 34.1095H40.3097L39.4566 35.8501L37.7236 34.1095Z" fill="#1D1F24"/>
<path fill-rule="evenodd" clip-rule="evenodd" d="M37.6643 31.6361C34.7433 31.6361 32.3652 29.258 32.3652 26.3371C32.3652 23.4161 34.7433 21.038 37.6643 21.038C40.5853 21.038 42.9634 23.4161 42.9634 26.3371C42.9634 29.258 40.5853 31.6361 37.6643 31.6361ZM37.6643 22.4167C35.5016 22.4167 33.7438 24.1743 33.7438 26.3371C33.7438 28.4998 35.5016 30.2578 37.6643 30.2578C39.827 30.2578 41.5848 28.4998 41.5848 26.3371C41.5848 24.1743 39.8184 22.4167 37.6643 22.4167Z" fill="#1D1F24"/>
</svg>

<svg xmlns="http://www.w3.org/2000/svg" width="60" height="60" fill="none"><rect width="60" height="60" fill="#F1F3F9" rx="5.333"/><path fill="#1D1F24" fill-rule="evenodd" d="M16.873 26.337a5.306 5.306 0 0 0 5.299 5.3c2.912 0 5.299-2.379 5.299-5.3s-2.378-5.299-5.299-5.299a5.306 5.306 0 0 0-5.3 5.3m1.378 0a3.924 3.924 0 0 1 3.921-3.92 3.93 3.93 0 0 1 3.92 3.92 3.924 3.924 0 0 1-3.92 3.92 3.924 3.924 0 0 1-3.92-3.92M23.689 37.151l.24.216.604-.121 1.534-3.137h1.645v4.852h1.379v-5.54c0-.38-.31-.69-.69-.69H16.107c-.38 0-.69.31-.69.69v5.54h1.38v-4.852h1.425l.996 2.81.129.318.646.121 1.956-1.947zm.275-1.3.853-1.742h-2.586zm-4.561-1.742h2.26l-1.67 1.664zM39.18 37.151l.242.216.603-.121 1.534-3.137h1.646v4.852h1.378v-5.54c0-.38-.31-.69-.689-.69H31.598c-.379 0-.689.31-.689.69v5.54h1.379v-4.852h1.424l.988 2.81.138.318.646.13 1.956-1.956zm-4.285-3.042.59 1.664 1.67-1.664zm2.829 0h2.586l-.853 1.741zM37.664 31.636a5.306 5.306 0 0 1-5.299-5.299c0-2.92 2.378-5.299 5.3-5.299 2.92 0 5.298 2.378 5.298 5.3a5.306 5.306 0 0 1-5.299 5.298m0-9.22a3.924 3.924 0 0 0-3.92 3.921 3.924 3.924 0 0 0 3.92 3.92 3.924 3.924 0 0 0 3.92-3.92 3.93 3.93 0 0 0-3.92-3.92" clip-rule="evenodd"/></svg>
